static/images/illustrations/designers.svg

<?xml version="1.0" encoding="UTF-8"?>
<svg width="100px" height="83px" viewBox="0 0 100 83" version="1.1" xmlns="http://www.w3.org/2000/svg" xmlns:xlink="http://www.w3.org/1999/xlink">
    <!-- Generator: Sketch 54.1 (76490) - https://sketchapp.com -->
    <title>Group 28</title>
    <desc>Created with Sketch.</desc>
    <defs>
        <polygon id="path-1" points="0 83 100 83 100 0 0 0"></polygon>
    </defs>
    <g id="Page-1" stroke="none" stroke-width="1" fill="none" fill-rule="evenodd">
        <g id="Hire---illustrations" transform="translate(-433.000000, -383.000000)">
            <g id="Group-28" transform="translate(433.000000, 383.000000)">
                <path d="M12.3363031,45.3752688 C11.8904425,37.9325177 20.505728,28.5082042 17.2722041,27.1013807 C14.0378531,25.6953371 -0.15275887,39.1131888 5.19012439,55" id="Fill-1" fill="#FFFFFF"></path>
                <path d="M12.2075353,44.9818645 C12.0196944,42.6811811 12.5678996,40.4339119 13.3184572,38.3375961 C14.0593405,36.2250237 15.0485286,34.2277952 15.9772528,32.2506937 C16.4375841,31.2644654 16.8906596,30.2720441 17.2131333,29.3020722 C17.3727578,28.8252146 17.4952978,28.3282298 17.4783679,27.9566524 C17.4509577,27.5812044 17.3558279,27.5146301 17.1300963,27.4457334 C16.8874349,27.3892227 16.380345,27.5231454 15.9450055,27.7251906 C15.4935423,27.9326547 15.0444977,28.2012742 14.6148015,28.5055032 C13.7521843,29.1147353 12.9508372,29.8400853 12.2051167,30.6142049 C9.2375525,33.7385516 7.06407976,37.6161166 5.97573102,41.7375293 C4.86964623,45.858942 4.93333478,50.2667789 6.24983367,54.3587751 C6.33367683,54.6196534 6.18130801,54.8975623 5.90962391,54.9780707 C5.64035837,55.0578051 5.35496915,54.9130447 5.26628888,54.6583593 C3.80467683,50.4308923 3.59829366,45.7869489 4.69954135,41.4371709 C5.7975643,37.0897153 7.99199784,33.0085568 11.1207989,29.6589414 C11.9140842,28.8290852 12.7686395,28.044902 13.7344483,27.3559356 C14.2181588,27.0122265 14.7333105,26.6956116 15.3065076,26.4293144 C15.8909911,26.1885632 16.5069159,25.9067837 17.4025866,26.0298687 C17.872592,26.115796 18.2700409,26.3379683 18.5796156,26.7118681 C18.8770976,27.0880902 18.9778706,27.5239195 18.9964129,27.8776922 C19.0270479,28.601494 18.8561368,29.1797613 18.6868381,29.7425463 C18.3184119,30.8526338 17.8290581,31.8527963 17.3542156,32.8537329 C16.3932439,34.8432202 15.4129239,36.7878086 14.6123829,38.7850372 C13.842477,40.7799434 13.1959172,42.8445203 13.2370326,44.9261279 L13.2370326,44.9338691 C13.2426759,45.2071333 13.0161381,45.4331762 12.7315551,45.438595 C12.4574524,45.4432398 12.2293023,45.2404204 12.2075353,44.9818645" id="Fill-3" fill="#204A69"></path>
                <path d="M22.2117854,66 L15.1242474,60.2739618 L15,7.57758559 L15,4.64184118 C15,2.0779787 17.0531884,0 19.5855058,0 L87.4144942,0 C89.9468116,0 92,2.0779787 92,4.64184118 L92,66 L22.2117854,66 Z" id="Fill-5" fill="#CCCED0"></path>
                <path d="M15,12 L15,7.58528428 L15,4.64607515 C15,2.07987409 17.0532091,0 19.5847755,0 L87.4152245,0 C89.9475675,0 92,2.07987409 92,4.64607515 L92,12 L15,12 Z" id="Fill-7" fill="#BBC9D5"></path>
                <path d="M92,66 L92,54 C92,60.6281321 86.9353141,66 80.6879362,66 L15,66" id="Fill-9" fill="#74DCFC"></path>
                <path d="M96,12.211685 C88.9161468,12.895851 81.8330734,12.8458933 74.75,12.8856901 L53.5,13 L32.25,12.8856901 C25.1669266,12.8458933 18.0838532,12.8975445 11,12.211685 L11,11.788315 C18.0838532,11.1024555 25.1669266,11.1541067 32.25,11.1134632 L53.5,11 L74.75,11.1143099 C81.8330734,11.1541067 88.9161468,11.104149 96,11.788315 L96,12.211685 Z" id="Fill-11" fill="#004F84"></path>
                <mask id="mask-2" fill="white">
                    <use xlink:href="#path-1"></use>
                </mask>
                <g id="Clip-14"></g>
                <polygon id="Fill-13" fill="#FFFFFF" mask="url(#mask-2)" points="24 57 57 57 57 36 24 36"></polygon>
                <path d="M57,30 L24,30 L24,27.6533982 C24,22.8742444 27.8127872,19 32.516927,19 L57,19 L57,30 Z" id="Fill-15" fill="#95ADC1" mask="url(#mask-2)"></path>
                <path d="M51.8712578,41 C48.0105242,41 46.6932155,42.781274 45.8786145,44.2501919 C45.1092265,45.6369916 43.4010933,47.5364543 40.7503832,48.2302379 C38.0989067,48.9255564 37,50.5118956 37,52 L52,52 L51.8712578,41 Z" id="Fill-16" fill="#BBC9D5" mask="url(#mask-2)"></path>
                <path d="M2.49379781,62 C-0.992498198,49.6350297 2.22415955,38.9956662 6,36" id="Fill-17" fill="#FFFFFF" mask="url(#mask-2)"></path>
                <path d="M0.195094544,55.1607179 C-0.0281770907,52.9645653 -0.0486672091,50.7443983 0.0770997243,48.5319778 C0.210638771,46.3195574 0.565329786,44.1164329 1.16236944,41.9783795 C1.81310734,39.8759604 2.60798262,37.7162166 4.24931175,36.1242964 C4.43584249,35.9430267 4.72129103,35.9623931 4.88662509,36.1669026 C5.04418703,36.3628908 5.03570837,36.6564858 4.87249397,36.8400795 L4.85059074,36.8640939 C4.22246263,37.5690318 3.75401613,38.4870003 3.35339899,39.4212367 C3.1534437,39.8937775 2.96620641,40.3725155 2.81571003,40.8729439 C2.64048419,41.3602032 2.51966314,41.8730261 2.38541754,42.3788772 C1.84843513,44.4061546 1.5707587,46.5209682 1.41531642,48.6412045 C1.25492825,50.7645393 1.30085438,52.901818 1.41955575,55.0359981 C1.57782425,57.1678542 1.87740392,59.2857665 2.25046538,61.3982562 L2.25258505,61.409876 C2.29992429,61.678682 2.13953612,61.9389668 1.89436126,61.9908688 C1.66261095,62.0404468 1.43721965,61.8831915 1.37362963,61.6391745 C0.826048878,59.5235862 0.424018625,57.3568705 0.195094544,55.1607179 Z" id="Fill-18" fill="#204A69" mask="url(#mask-2)"></path>
                <path d="M13,43.9844855 C13.3025978,49.0570468 14.4708238,53.6473273 17.7481401,53.251951 C20.6054571,52.9074646 17.1603066,41.4243256 20.8725039,40.0683021 C24.8806848,38.6042352 34.2802328,61.0130716 16.7336933,75 L2.03051758,62 L13,43.9844855 Z" id="Fill-19" fill="#FFFFFF" mask="url(#mask-2)"></path>
                <path d="M13.0360551,43.6594956 C13.1390453,44.9999236 13.2996127,46.3341278 13.5753345,47.6317679 C13.8599767,48.9138487 14.24842,50.2146006 14.9563762,51.2018339 C15.3050832,51.6942836 15.7454271,52.0599256 16.2368606,52.1968469 C16.4825774,52.2668634 16.746135,52.2839786 17.0226677,52.2536381 C17.1621505,52.2396348 17.1305236,52.234967 17.1832351,52.2077383 C17.2189168,52.1820656 17.2724392,52.1237185 17.3243398,52.031919 C17.5400515,51.6390484 17.6284447,50.9614438 17.6657482,50.3312948 C17.7038627,49.6848087 17.699808,49.0165396 17.6884547,48.3436028 C17.6625045,46.9961732 17.6138477,45.6269607 17.6722358,44.2281856 C17.7046737,43.5280201 17.7622509,42.819297 17.9074103,42.0950147 C18.0614901,41.3777341 18.2699033,40.6122198 18.8537847,39.9034967 C19.1514021,39.5541919 19.5487658,39.2500089 20.0564183,39.0874149 C20.6581405,38.8952584 21.2639175,39.0500728 21.6669579,39.2609004 C22.4989889,39.6965589 22.9960991,40.2932555 23.4583385,40.8837284 C24.3479468,42.0849012 24.9545347,43.3825413 25.4532667,44.7058541 C26.418293,47.3618152 26.8967514,50.1414722 26.9867664,52.9265749 C27.0711048,55.7116777 26.7548357,58.5162294 25.9657849,61.203309 C25.1905201,63.8919445 23.9700457,66.4631078 22.3595061,68.7790997 C20.7376133,71.0880899 18.7459289,73.1403527 16.5150153,74.8868767 C16.2928159,75.0611401 15.9660045,75.0307996 15.7843525,74.818416 C15.6051334,74.6099223 15.6351384,74.3018495 15.8459845,74.1252522 C20.0669606,70.6314264 23.2045123,65.9846614 24.5806884,60.8454467 C25.964163,55.7303487 25.7962971,50.1772584 23.9870756,45.2053054 C23.5305128,43.9737921 22.9620393,42.7663956 22.210292,41.7457099 C21.8396895,41.2478145 21.3904252,40.7763697 20.9671111,40.5639862 C20.7530213,40.4519597 20.6102947,40.4488479 20.530011,40.4760765 C20.363767,40.526644 20.1731946,40.6511179 20.0256023,40.8277152 C19.713388,41.1855775 19.5074076,41.7690488 19.3833328,42.374303 C19.2568251,42.9850029 19.1968151,43.6353788 19.1627553,44.2927564 C19.0962577,45.6114014 19.1465364,46.9619429 19.1408598,48.3327113 C19.1392379,49.0196515 19.1327503,49.7120373 19.0784169,50.4223163 C19.0021879,51.1357072 18.9681282,51.8553217 18.5261624,52.6784051 C18.4053314,52.8814531 18.2374655,53.0992824 17.9852611,53.2727679 C17.7517086,53.4485872 17.3697528,53.5473883 17.1556629,53.5520561 C16.7282942,53.5917321 16.2709204,53.5582798 15.8394969,53.4252483 C14.9620529,53.1599634 14.3084301,52.5360382 13.8794394,51.9043333 C13.0149705,50.6098051 12.6922138,49.2094741 12.4229796,47.8418175 C12.1780738,46.4656033 12.0604866,45.0886112 12.0004765,43.7155089 C11.9883123,43.4408884 12.2105117,43.2082779 12.4967757,43.1973864 C12.7773632,43.185717 13.0157815,43.3926548 13.0360551,43.6594956" id="Fill-20" fill="#204A69" mask="url(#mask-2)"></path>
                <path d="M86.3091955,32.0426796 C82.7796514,31.4928455 80.4594965,36.3714169 88,40" id="Fill-21" fill="#FFFFFF" mask="url(#mask-2)"></path>
                <path d="M85.811532,32.1771041 C85.394074,32.2016343 84.9844924,32.2119212 84.6521013,32.4057889 C84.4709402,32.4651361 84.3394016,32.598074 84.1850208,32.6890731 C84.0747489,32.8307152 83.9195805,32.928836 83.8526297,33.0965909 C83.6517772,33.382249 83.6045178,33.7414976 83.5722239,34.0936247 C83.5934906,34.4584124 83.6580785,34.8398174 83.8463284,35.2069791 C84.1999863,35.9365546 84.7505584,36.6574259 85.4626001,37.2540635 C86.1336837,37.8934312 86.9402442,38.4125219 87.7357775,38.9806729 L87.7704344,39.0052031 C88.0161833,39.1808709 88.0736823,39.5227111 87.8988225,39.7695956 C87.7499553,39.9808719 87.4774261,40.0536711 87.248218,39.9595068 C86.768535,39.762474 86.2904274,39.5519891 85.8209839,39.3153914 C85.3775332,39.0241942 84.8986379,38.797092 84.4819674,38.4433824 C83.617908,37.8095538 82.8389154,36.9454578 82.3615954,35.8534684 C82.1158465,35.3153867 81.9969103,34.6870972 82.000061,34.0516859 C82.0441697,33.4154834 82.2143036,32.7444638 82.6443642,32.2340775 C83.4225691,31.1310099 84.8757958,30.8168652 85.9863918,31.0961929 C86.2778248,31.1697835 86.45426,31.467311 86.3817955,31.7600908 C86.3219336,31.9966885 86.1171429,32.1589043 85.8863594,32.1731476 L85.811532,32.1771041 Z" id="Fill-22" fill="#C8D7E2" mask="url(#mask-2)"></path>
                <polygon id="Fill-23" fill="#FFFFFF" mask="url(#mask-2)" points="81.9985928 57 64 55.1165442 68.0014072 16 86 17.8834558"></polygon>
                <path d="M97.014626,51 C100.981161,41.8821863 99.0181758,35.817057 91,29" id="Fill-24" fill="#FFFFFF" mask="url(#mask-2)"></path>
                <path d="M96.8366285,50.2601012 C97.5247792,48.3432918 98.0991351,46.3942075 98.3474845,44.4230819 C98.5789184,42.4566795 98.5227899,40.4682357 97.9192164,38.6112527 C97.3448604,36.7534826 96.3868317,35.0122167 95.1796846,33.4338993 C93.9971419,31.8327533 92.597774,30.3756633 91.1645752,28.9398274 L91.1599619,28.9351043 C90.9500567,28.7241371 90.9462123,28.3793476 91.1515042,28.1636573 C91.3421873,27.9644981 91.6466652,27.9463927 91.8565703,28.1132771 C93.4835277,29.3940365 95.0105303,30.8330211 96.3553074,32.4774626 C97.6693293,34.1352862 98.812659,36.024544 99.4300724,38.1405127 C100.061326,40.2462479 100.153592,42.51257 99.7791455,44.6387722 C99.4277657,46.7752078 98.7080908,48.7943521 97.8131105,50.6914817 C97.6854758,50.9630625 97.3663892,51.076418 97.1026622,50.9457443 C96.8535439,50.8229426 96.7405181,50.5285332 96.8327841,50.2687603 L96.8366285,50.2601012 Z" id="Fill-25" fill="#204A69" mask="url(#mask-2)"></path>
                <path d="M74.1491783,79.1597608 C64.7393281,59.7665528 73.6473094,38.2108494 78.1999223,38.6979618 C82.7540582,39.1850741 77.9653614,54.2446351 81.4243724,55.5273379 C87.0964802,57.6316001 87.9448593,48.6164812 87.6623201,42.2454614 C87.3797809,35.8752286 81.3512625,22.5500707 85.1819153,21.0580433 C89.0133297,19.565229 99.1238161,47.2755452 96.6007639,57.1499964 C94.0784732,67.0252344 86.3432961,83 86.3432961,83" id="Fill-26" fill="#FFFFFF" mask="url(#mask-2)"></path>
                <path d="M73.4160923,78.880873 C70.1923057,72.5368601 68.7480742,65.3326289 69.0358287,58.2231078 C69.1738573,54.6656077 69.7509261,51.1229795 70.7795121,47.7024568 C71.3012134,45.993761 71.9352092,44.3132433 72.7540229,42.7031712 C73.1673289,41.8993093 73.6188462,41.1103191 74.1577036,40.3604654 C74.6973409,39.6121772 75.3024832,38.8858053 76.1337741,38.2964109 C76.551759,38.0107151 77.0461665,37.7445875 77.6700246,37.6819692 C77.9889721,37.6514428 78.297002,37.6851001 78.5808574,37.7696348 C78.8732909,37.8533867 79.1610455,37.9942778 79.4043501,38.183698 C79.8925191,38.5688004 80.1833929,39.0736601 80.3752293,39.5479935 C80.5647262,40.0278059 80.6778004,40.5044874 80.7526634,40.9709935 C81.0318399,42.8354523 80.9265638,44.6122455 80.8556,46.3749496 C80.7760581,48.1321747 80.6473873,49.8800069 80.7121126,51.565221 C80.7487643,52.3925648 80.8392237,53.2473041 81.1098222,53.864094 C81.2455113,54.1740544 81.4116135,54.3501682 81.5800552,54.4120038 C81.8935439,54.5215857 82.2967122,54.6382122 82.6406139,54.6624768 C83.3549314,54.736836 84.002964,54.5646358 84.5309039,54.1114361 C85.0682017,53.6754564 85.4830673,52.9952655 85.796556,52.2618491 C86.4204141,50.7730999 86.7058292,49.0722313 86.8641332,47.3776246 C87.0177582,45.676756 87.0356941,43.9484919 86.9655101,42.225707 C86.9093629,40.5702366 86.521791,38.889719 86.1116044,37.2076359 C85.2803135,33.8356424 84.1667268,30.5027853 83.4734645,26.9836389 C83.3065824,26.0999386 83.1662144,25.202932 83.1155259,24.2675717 C83.0890119,23.336125 83.0585988,22.3389292 83.6013554,21.2712878 C83.8836512,20.7390326 84.3874166,20.2646992 85.0510456,20.063538 C85.4549937,19.9469115 85.8651804,20.0063989 86.1700911,20.1167636 C86.4796806,20.2294764 86.7276642,20.3821085 86.9452347,20.541785 C87.7905624,21.1922322 88.32864,21.9413032 88.8565799,22.6935051 C90.8583846,25.7391009 92.2129364,29.0148188 93.4762491,32.3218459 C94.7099284,35.6374829 95.7455328,39.0227828 96.5612273,42.4683527 C97.3558665,45.9170536 97.991422,49.4268073 98,53.0390983 C97.9953211,53.9423668 97.9446326,54.8518971 97.8011452,55.7661237 C97.7309612,56.2169752 97.6303641,56.6944395 97.503253,57.1233746 L97.1351767,58.4039181 C96.6290719,60.1055694 96.0496637,61.7751288 95.4367231,63.428251 C92.9397311,70.0258678 89.9920016,76.4011897 86.8672525,82.6998043 C86.7346826,82.9674974 86.4110562,83.0762966 86.1435771,82.9432328 C85.8792172,82.8109517 85.7708219,82.4900331 85.8987128,82.2239055 L85.9026119,82.2152955 C88.9259841,75.9182464 91.7614191,69.5006571 94.1648324,62.9562658 C94.7629564,61.3203637 95.3244286,59.6719379 95.8110379,58.0102057 C96.0387461,57.1672074 96.316363,56.3547354 96.4231987,55.5508734 C96.5487501,54.7313569 96.5932,53.8852276 96.5947597,53.0351847 C96.571365,49.6224893 95.9412683,46.1792676 95.1442896,42.8088395 C94.3285952,39.4337151 93.2922109,36.1047717 92.0663298,32.8548838 C90.8225127,29.6284778 89.4437864,26.3871999 87.5729919,23.5795535 C87.1035387,22.9001454 86.5724795,22.2262163 86.0195853,21.8145012 C85.7458676,21.6023819 85.4916454,21.5554182 85.4830673,21.5851618 C85.3099467,21.6477801 85.1071928,21.7910194 84.9871002,22.0367961 C84.7118228,22.5432213 84.6603545,23.3807406 84.7071438,24.1814716 C84.7554928,24.9978572 84.8880627,25.8369419 85.0518254,26.6752439 C85.7372895,30.0378447 86.8056465,33.3863563 87.6509742,36.824099 C88.0603811,38.5445358 88.4682283,40.3064572 88.5290544,42.1630887 C88.5945595,43.945361 88.5719447,45.7323297 88.4027232,47.523212 C88.223364,49.3109635 87.9340498,51.1175004 87.1978972,52.8692463 C86.8189035,53.7333783 86.3143582,54.6139477 85.4900857,55.2894422 C84.6899877,55.9907667 83.5069968,56.2983789 82.4916678,56.1668806 C81.9637279,56.1160033 81.519229,55.9915495 81.0123443,55.8068256 C80.354174,55.5430461 79.9502259,54.9638272 79.7435729,54.4777529 C79.325588,53.4727298 79.277239,52.5405004 79.2273304,51.6262738 C79.1665042,49.8040823 79.3084319,48.0468573 79.3926528,46.3021559 C79.4745341,44.5684127 79.567333,42.8158841 79.3279275,41.2042465 C79.2086146,40.4183873 78.9450346,39.6387899 78.5270497,39.3210023 C78.1004867,39.0016491 77.5538311,39.0306101 76.9377712,39.4751997 C76.3349683,39.8939594 75.7836337,40.520142 75.303263,41.1893747 C74.8166537,41.8601728 74.3916504,42.5935893 74.0009593,43.3465739 C73.224256,44.8572395 72.6081961,46.4673116 72.1005316,48.1094755 C71.0883218,51.3984998 70.5385469,54.8362425 70.3552886,58.2833779 C69.99735,65.1799969 71.3175897,72.1893288 74.3807329,78.3955814 C74.5125229,78.6632745 74.4041276,78.9881067 74.1374282,79.1211705 C73.8722885,79.2526689 73.5510016,79.1446524 73.4160923,78.880873" id="Fill-27" fill="#204A69" mask="url(#mask-2)"></path>
            </g>
        </g>
    </g>
</svg>

<svg width="100" height="83" xmlns="http://www.w3.org/2000/svg" xmlns:xlink="http://www.w3.org/1999/xlink"><defs><path id="a" d="M0 83h100V0H0z"/></defs><g fill="none" fill-rule="evenodd"><path d="M12.336 45.375c-.446-7.442 8.17-16.867 4.936-18.274C14.038 25.695-.153 39.113 5.19 55" fill="#FFF"/><path d="M12.208 44.982c-.188-2.3.36-4.548 1.11-6.644.741-2.113 1.73-4.11 2.66-6.087.46-.987.913-1.979 1.235-2.949.16-.477.282-.974.265-1.345-.027-.376-.122-.442-.348-.511-.243-.057-.75.077-1.185.28-.451.207-.9.475-1.33.78-.863.609-1.664 1.334-2.41 2.108-2.967 3.125-5.14 7.002-6.23 11.124-1.105 4.12-1.042 8.529.275 12.62a.492.492 0 0 1-.34.62.524.524 0 0 1-.644-.32 23.232 23.232 0 0 1-.566-13.22 26.958 26.958 0 0 1 6.42-11.78c.794-.829 1.649-1.613 2.614-2.302.484-.344 1-.66 1.573-.927.584-.24 1.2-.522 2.096-.4.47.087.867.309 1.177.683.297.376.398.812.416 1.166.031.723-.14 1.302-.31 1.865-.368 1.11-.857 2.11-1.332 3.11-.96 1.99-1.941 3.935-2.742 5.932-.77 1.995-1.416 4.06-1.375 6.141v.008c.006.273-.22.5-.505.505a.51.51 0 0 1-.524-.457" fill="#204A69"/><path d="M22.212 66l-7.088-5.726L15 7.578V4.642C15 2.078 17.053 0 19.586 0h67.828C89.947 0 92 2.078 92 4.642V66H22.212z" fill="#CCCED0"/><path d="M15 12V4.646C15 2.08 17.053 0 19.585 0h67.83C89.948 0 92 2.08 92 4.646V12H15z" fill="#BBC9D5"/><path d="M92 66V54c0 6.628-5.065 12-11.312 12H15" fill="#74DCFC"/><path d="M96 12.212c-7.084.684-14.167.634-21.25.674L53.5 13l-21.25-.114c-7.083-.04-14.166.012-21.25-.674v-.424c7.084-.686 14.167-.634 21.25-.675L53.5 11l21.25.114c7.083.04 14.166-.01 21.25.674v.424z" fill="#004F84"/><mask id="b" fill="#fff"><use xlink:href="#a"/></mask><path fill="#FFF" mask="url(#b)" d="M24 57h33V36H24z"/><path d="M57 30H24v-2.347C24 22.874 27.813 19 32.517 19H57v11z" fill="#95ADC1" mask="url(#b)"/><path d="M51.871 41c-3.86 0-5.178 1.781-5.992 3.25-.77 1.387-2.478 3.286-5.129 3.98C38.1 48.926 37 50.512 37 52h15l-.129-11z" fill="#BBC9D5" mask="url(#b)"/><path d="M2.494 62C-.992 49.635 2.224 38.996 6 36" fill="#FFF" mask="url(#b)"/><path d="M.195 55.16c-.223-2.195-.244-4.416-.118-6.628a31.423 31.423 0 0 1 1.085-6.554c.651-2.102 1.446-4.262 3.087-5.854a.424.424 0 0 1 .638.043c.157.196.149.49-.015.673l-.021.024c-.629.705-1.097 1.623-1.498 2.557-.2.473-.387.952-.537 1.452-.176.487-.296 1-.43 1.506-.538 2.027-.815 4.142-.97 6.262-.161 2.124-.115 4.26.004 6.395.158 2.132.457 4.25.83 6.362l.003.012c.047.269-.113.529-.359.58-.231.05-.457-.107-.52-.35a44.135 44.135 0 0 1-1.179-6.48z" fill="#204A69" mask="url(#b)"/><path d="M13 43.984c.303 5.073 1.47 9.663 4.748 9.268 2.857-.345-.588-11.828 3.125-13.184C24.88 38.604 34.28 61.013 16.733 75L2.032 62 13 43.984z" fill="#FFF" mask="url(#b)"/><path d="M13.036 43.66c.103 1.34.264 2.674.54 3.972.284 1.282.672 2.583 1.38 3.57.35.492.79.858 1.28.995.247.07.51.087.787.057.14-.014.108-.019.16-.046a.57.57 0 0 0 .141-.176c.216-.393.304-1.07.342-1.7.038-.647.034-1.315.022-1.988-.025-1.348-.074-2.717-.016-4.116.033-.7.09-1.409.235-2.133.154-.717.363-1.483.947-2.192.297-.349.695-.653 1.202-.816.602-.192 1.208-.037 1.611.174.832.436 1.33 1.032 1.791 1.623.89 1.2 1.497 2.499 1.995 3.822.965 2.656 1.444 5.435 1.534 8.22.084 2.786-.232 5.59-1.021 8.277a25.835 25.835 0 0 1-3.606 7.576c-1.622 2.31-3.614 4.361-5.845 6.108a.535.535 0 0 1-.73-.069.486.486 0 0 1 .061-.693c4.221-3.494 7.359-8.14 8.735-13.28 1.383-5.115 1.215-10.668-.594-15.64-.456-1.231-1.025-2.439-1.777-3.46-.37-.497-.82-.969-1.243-1.181-.214-.112-.357-.115-.437-.088-.166.05-.357.175-.504.352-.313.358-.519.941-.643 1.546-.126.611-.186 1.261-.22 1.919-.067 1.318-.016 2.669-.022 4.04-.002.687-.008 1.379-.063 2.09-.076.713-.11 1.432-.552 2.255-.12.203-.289.421-.54.595-.234.176-.616.274-.83.28a3.43 3.43 0 0 1-1.317-.128c-.877-.265-1.53-.889-1.96-1.52-.864-1.295-1.187-2.696-1.456-4.063-.245-1.376-.363-2.753-.423-4.126a.506.506 0 0 1 .497-.519.513.513 0 0 1 .54.462" fill="#204A69" mask="url(#b)"/><path d="M86.31 32.043C82.78 31.493 80.46 36.37 88 40" fill="#FFF" mask="url(#b)"/><path d="M85.812 32.177c-.418.025-.828.035-1.16.229-.181.06-.313.192-.467.283-.11.142-.265.24-.332.408-.201.285-.248.644-.28.997.02.364.085.746.273 1.113.354.73.905 1.45 1.617 2.047.67.64 1.477 1.159 2.273 1.727l.034.024a.55.55 0 0 1 .129.765.544.544 0 0 1-.65.19 20.3 20.3 0 0 1-1.428-.645c-.443-.29-.922-.518-1.339-.872-.864-.633-1.643-1.498-2.12-2.59-.246-.538-.365-1.166-.362-1.801.044-.637.214-1.308.644-1.818.779-1.103 2.232-1.417 3.342-1.138a.548.548 0 0 1-.1 1.077l-.074.004z" fill="#C8D7E2" mask="url(#b)"/><path fill="#FFF" mask="url(#b)" d="M81.999 57L64 55.117 68.001 16 86 17.883zM97.015 51c3.966-9.118 2.003-15.183-6.015-22"/><path d="M96.837 50.26c.688-1.917 1.262-3.866 1.51-5.837.232-1.966.176-3.955-.428-5.812-.574-1.858-1.532-3.599-2.74-5.177-1.182-1.601-2.581-3.058-4.014-4.494l-.005-.005a.556.556 0 0 1-.008-.771c.19-.2.495-.218.705-.05 1.627 1.28 3.154 2.719 4.498 4.363 1.314 1.658 2.458 3.548 3.075 5.664.631 2.105.724 4.372.35 6.498-.352 2.136-1.072 4.155-1.967 6.052a.527.527 0 0 1-.71.255.55.55 0 0 1-.27-.677l.004-.009z" fill="#204A69" mask="url(#b)"/><path d="M74.15 79.16c-9.41-19.393-.503-40.95 4.05-40.462 4.554.487-.235 15.547 3.224 16.83 5.672 2.104 6.52-6.912 6.238-13.283-.282-6.37-6.31-19.695-2.48-21.187C89.013 19.565 99.124 47.276 96.6 57.15 94.078 67.025 86.343 83 86.343 83" fill="#FFF" mask="url(#b)"/><path d="M73.416 78.88c-3.224-6.343-4.668-13.547-4.38-20.657.138-3.557.715-7.1 1.744-10.52.521-1.71 1.155-3.39 1.974-5 .413-.804.865-1.593 1.404-2.343.54-.748 1.144-1.474 1.976-2.064.418-.285.912-.551 1.536-.614.319-.03.627.003.91.088.293.083.581.224.824.414.489.385.78.89.971 1.364.19.48.303.956.378 1.423.279 1.864.174 3.641.103 5.404-.08 1.757-.209 3.505-.144 5.19.037.828.127 1.682.398 2.3.136.31.302.485.47.547.314.11.717.226 1.06.25.715.075 1.363-.097 1.89-.55.538-.437.953-1.117 1.267-1.85.623-1.489.909-3.19 1.067-4.884.154-1.701.172-3.43.102-5.152-.057-1.656-.444-3.336-.854-5.018-.832-3.372-1.945-6.705-2.639-10.224-.166-.884-.307-1.781-.357-2.716-.027-.932-.057-1.93.485-2.997a2.472 2.472 0 0 1 1.45-1.207 1.845 1.845 0 0 1 1.12.053c.309.112.557.265.774.425.846.65 1.384 1.4 1.912 2.152 2.001 3.045 3.356 6.32 4.62 9.628a85.732 85.732 0 0 1 3.084 10.146c.795 3.45 1.43 6.959 1.439 10.571a18.13 18.13 0 0 1-.199 2.727c-.07.451-.17.928-.298 1.357l-.368 1.28a80.332 80.332 0 0 1-1.698 5.025c-2.497 6.598-5.445 12.973-8.57 19.272a.539.539 0 0 1-.968-.476l.004-.009c3.023-6.297 5.858-12.714 8.262-19.259a79.5 79.5 0 0 0 1.646-4.946c.228-.843.505-1.655.612-2.46.126-.819.17-1.665.172-2.515-.024-3.413-.654-6.856-1.45-10.226a84.452 84.452 0 0 0-3.079-9.954c-1.243-3.227-2.622-6.468-4.493-9.275-.47-.68-1-1.354-1.553-1.765-.274-.213-.528-.26-.537-.23a.901.901 0 0 0-.496.452c-.275.506-.327 1.344-.28 2.144.048.817.181 1.656.345 2.494.685 3.363 1.754 6.711 2.599 10.15.41 1.72.817 3.481.878 5.338.066 1.782.043 3.57-.126 5.36-.18 1.788-.469 3.595-1.205 5.346-.38.864-.884 1.745-1.708 2.42-.8.702-1.983 1.01-2.998.878-.528-.051-.973-.175-1.48-.36-.658-.264-1.062-.843-1.268-1.33-.418-1.004-.467-1.936-.517-2.85-.06-1.823.081-3.58.166-5.325.082-1.734.174-3.486-.065-5.098-.12-.786-.383-1.565-.801-1.883-.427-.32-.973-.29-1.59.154-.602.419-1.153 1.045-1.634 1.714a17.01 17.01 0 0 0-1.302 2.158c-.777 1.51-1.393 3.12-1.9 4.762-1.013 3.29-1.562 6.727-1.746 10.174-.358 6.897.963 13.906 4.026 20.113a.543.543 0 0 1-.244.725.541.541 0 0 1-.72-.24" fill="#204A69" mask="url(#b)"/></g></svg>
